X: 31
T:Dark Isle, The (9/8)
M:9/8
L:1/8
Q:160
R:Waltz
K:D
B3|e3-e2f e3|d3-d2e d3|BG2-G3 B3|A6 d2e|
f3-f2e d3|fa2-a3 A3|f3-f2 a3f|e6B3|
e3-e2f e3|d3-d2e d3|BG2-G3 B3|A3-A2A d2e|
f3-f2A a2f|e3-e2A f2e|d3-d2e d2c|d3f3g3|
|a3-a2A A3|f3e3d3|BG2-G3 B3|A6 d2e|
f3-f2e d3|fa2-a3 A3|f6 a2f|e6B3|
e3-e2f e3|d3-d2e d3|BG2-G3 B3|A3-A2A d2e|
f3-f2A a2f|e3-e2A f2e|d3-d2e d2c|d6|
